X:1
T:Come Raise Me in your Arms, Dear Brother
M:3/4
L:1/8
K:Eb
 BBc| e3 fg e| e c2 ce e| e3 B c/2B/2 G| B3 EG G| G3| EGB| F E2 EG B|\
 B3 EG F| E3||
